!!!COM: Schiørring, Niels
!!!CDT: 1743-1798
!!!OPR@@DA: Choral-Bog
!!!ONM: 79
!!!OTL@@DA: D! Guds Lam u ſkyldig
**kern	**fb	**kern	**kern	**kern	**kern	**kern	**kern	**kern
*part6	*part6	*part6	*part5	*part5	*part4	*part3	*part2	*part1
*staff8	*	*staff7	*staff6	*staff5	*staff4	*staff3	*staff2	*staff1
*clefF4	*	*clefC1	*clefF4	*clefC1	*clefF4	*clefC4	*clefC3	*clefC1
*mclefF4	*	*mclefG2	*mclefF4	*mclefG2	*mclefF4	*mclefGv2	*mclefG2	*mclefG2
*k[b-]	*	*k[b-]	*k[b-]	*k[b-]	*k[b-]	*k[b-]	*k[b-]	*k[b-]
*F:	*	*F:	*F:	*F:	*F:	*F:	*F:	*F:
*M4/4	*	*M4/4	*M4/4	*M4/4	*M4/4	*M4/4	*M4/4	*M4/4
*met(c)	*	*met(c)	*met(c)	*met(c)	*met(c)	*met(c)	*met(c)	*met(c)
*MM180	*	*MM180	*MM180	*MM180	*MM180	*MM180	*MM180	*MM180
*	*above	*	*	*	*	*	*	*
*	*	*	*^	*^	*^	*	*	*
=1	=1	=1	=1	=1	=1	=1	=1	=1	=1	=1	=1
2FF	.	2f	2ryy	2FF	2A	2c	2F	2FF	2A	2c	2f
=2	=2	=2	=2	=2	=2	=2	=2	=2	=2	=2	=2
2F	.	2a	1ryy	2F	2c	2f	2F	1r	2c	2c	2a
2D	6	2b-	.	2D	2d	2f	2D	.	2d	2f	2b-
=3	=3	=3	=3	=3	=3	=3	=3	=3	=3	=3	=3
2E	6	2cc	2c	2E	2cc	2g	2E	1r	2c	2g	2cc
2A	.	2cc	[2c	2A	2cc	2e	2A	.	[2c	2e	2cc
=4	=4	=4	=4	=4	=4	=4	=4	=4	=4	=4	=4
2F	6 5	1dd	2c]	2F	1dd	2a	(2F	1r	(2c]	(2a	1dd
2G	n	.	2Bn	2G	.	2g	2G)	.	2B)	2g)	.
=5	=5	=5	=5	=5	=5	=5	=5	=5	=5	=5	=5
*	*	*	*	*	*	*^	*	*	*	*	*
2C	.	2cc	2c	2C	2cc	2g	2e\	2C	1r	2c	2e	2cc
*	*	*	*	*	*	*v	*v	*	*	*	*	*
2AA	6	2cc	2ryy	2AA	2c	2f	2AA	.	2c	2f	2cc
=6	=6	=6	=6	=6	=6	=6	=6	=6	=6	=6	=6
2D	.	2f	2A	2D	2f	2d	2D	1r	2A	2d	2f
2E	6	2g	2G	2E	2g	2c	2E	.	2G	2c	2g
=7	=7	=7	=7	=7	=7	=7	=7	=7	=7	=7	=7
2F	.	2a	2F	2F	2a	2c	2F	1r	2F	2c	2a
2BB-	8	(4b-	[2F	2BB-	4b-	4d	2BB-	.	[2F	2d	(4b-
.	7	4a)	.	.	4a	4f	.	.	.	.	4a)
=8	=8	=8	=8	=8	=8	=8	=8	=8	=8	=8	=8
1C	4	1g	2F]	1C	1g	1c	1C	1r	(2F]	(2G	1g
.	3	.	4E	.	.	.	.	.	2E)	2c)	.
.	.	.	4B-	.	.	.	.	.	.	.	.
=9	=9	=9	=9	=9	=9	=9	=9	=9	=9	=9	=9
2FF	.	2f	2ryy	2FF	2A	2c	2F	2FF	2A	2c	2f
=10:|!	=10:|!	=10:|!	=10:|!	=10:|!	=10:|!	=10:|!	=10:|!	=10:|!	=10:|!	=10:|!	=10:|!
2F	6	2a	2ryy	2F	2d	2f	2F	2r	2d	2f	2a
=11	=11	=11	=11	=11	=11	=11	=11	=11	=11	=11	=11
2C#X	5	2a	1ryy	2C#X	2e	2g	2C#X	1r	2e	2g	2a
2D	.	4a	.	2D	2d	2f	4D	.	4d	4f	4a
.	.	4a	.	.	.	.	4D	.	4d	4f	4a
=12	=12	=12	=12	=12	=12	=12	=12	=12	=12	=12	=12
2BBn	6	2g	1G	2BBn	2g	2d	2BBn	1r	2G	2d	2g
2Cni	.	2e	.	2Cni	2e	2cni	2Cni	.	2G	2c	2e
=13	=13	=13	=13	=13	=13	=13	=13	=13	=13	=13	=13
2F	.	2f	2A	2F	2f	2.c	(2F	1r	(2A	(2.c	(2f
2G	4	2d	2G	2G	2d	.	2G)	.	2G)	.	2d)
.	n	.	.	.	.	4Bn	.	.	.	4Bn)	.
=14	=14	=14	=14	=14	=14	=14	=14	=14	=14	=14	=14
2C	.	2c	2E	2C	2c	2G	2C	1r	2E	2c	2c
2A	6	4cc	2c	2A	4cc	2f	4A	.	4c	4f	4cc
.	.	4cc	.	.	4cc	.	4A	.	4c	4f	4cc
=15	=15	=15	=15	=15	=15	=15	=15	=15	=15	=15	=15
1E	6	2cc	1c	1E	2cc	1g	2E	1r	2c	2g	2cc
.	5	2b-	.	.	2b-	.	2E	.	2c	2g	2b-
=16	=16	=16	=16	=16	=16	=16	=16	=16	=16	=16	=16
2F	.	2a	2c	2F	2a	2f	2F	1r	2c	2f	2a
2BB-	.	2dd	2B-	2BB-	2dd	2f	2BB-	.	2B-	2f	2dd
=17	=17	=17	=17	=17	=17	=17	=17	=17	=17	=17	=17
1C	6 4	(2cc	2A	1C	(2cc	2f	1C	1r	(2A	(2f	(2cc
.	5 3	2b-)	2G	.	2b-)	2e	.	.	2G)	2e)	2b-)
=18	=18	=18	=18	=18	=18	=18	=18	=18	=18	=18	=18
*	*	*	*	*	*	*^	*	*	*	*	*
2FF	.	2a	2F	2FF	2a	2f	2c\	2F	2FF	2F	2f	2a
*	*	*	*	*	*	*v	*v	*	*	*	*	*
*	*	*	*	*	*	*	*v	*v	*	*	*
2BBn	5	2dd	2ryy	2BBn	2f	2g	2BBn	2G	2f	2dd
=19	=19	=19	=19	=19	=19	=19	=19	=19	=19	=19
2C	.	2cc	4ryy	2C	2e	2g	2C	(4G	2e	2cc
.	.	.	4ryy	.	.	.	.	4c)	.	.
2F	.	(4b-Xi	2c	2F	4b-Xi	2f	2F	2c	2f	4b-
.	.	4a)	.	.	4a	.	.	.	.	4a
=20	=20	=20	=20	=20	=20	=20	=20	=20	=20	=20
2B-	6	2g	2d	2B-	2g	2g	2B-	2B-	2d	2g
2E	7 5	2dd	2ryy	2E	2g	2b-	2E	2B-	2g	2dd
=21	=21	=21	=21	=21	=21	=21	=21	=21	=21	=21
2F	.	2.cc	1ryy	2F	2c	2.a	2F	2A	2.a	2.cc
2BB-	9 7	.	.	2BB-	2d	.	2BB-	2d	.	.
.	8 6	4b-	.	.	.	4g	.	.	4g	4b-
=22	=22	=22	=22	=22	=22	=22	=22	=22	=22	=22
1C	6 4	(2a	2c	1C	2a	2f	1C	(2c	(2f	(2a
.	5 3	2g)	2B-	.	2g	2e	.	2B-)	2e)	2g)
=23	=23	=23	=23	=23	=23	=23	=23	=23	=23	=23
*	*	*	*	*	*	*	*^	*	*	*
2FF	.	2f	2ryy	2FF	2A	2c	2F	2FF	2A	2f	2f
*	*	*	*v	*v	*	*	*v	*v	*	*	*
*	*	*	*	*v	*v	*	*	*	*
==	==	==	==	==	==	==	==	==
*-	*-	*-	*-	*-	*-	*-	*-	*-
!!!system-decoration: {(s1,s2,s3,s4)}{(s5,s6)}{(s7,s8)}
!!!RDF**kern: i = editorial accidental
!!!RDF**kern: > = above
!!!RDF**kern: < = below
!!!AGN: chorale
!!!EED: Derek Remeš
!!!EED2: Victor Phan
!!!END: 2023/11/28
!!!ENC: Wolfgang Drescher
!!!EEV: 2023/12/10
!!!title: @{ONM}. @{OTL}
!!!verovio: mnumInterval 1